src/images/header-logo.svg

<svg width="37" height="38" viewBox="0 0 37 38" fill="none" xmlns="http://www.w3.org/2000/svg">
<path d="M15.9582 1.35421C17.1967 -0.451404 19.8033 -0.451404 21.0418 1.35421V1.35421C21.9069 2.61546 23.5263 3.0611 24.8895 2.41307V2.41307C26.8411 1.48534 29.0984 2.82384 29.2919 5.02353V5.02353C29.4271 6.56004 30.6126 7.77756 32.1087 7.91638V7.91638C34.2505 8.11513 35.5537 10.4335 34.6504 12.4378V12.4378C34.0195 13.8379 34.4534 15.5011 35.6814 16.3895V16.3895C37.4395 17.6615 37.4395 20.3385 35.6814 21.6105V21.6105C34.4534 22.4989 34.0195 24.1621 34.6504 25.5622V25.5622C35.5537 27.5665 34.2505 29.8849 32.1087 30.0836V30.0836C30.6126 30.2224 29.4271 31.44 29.2919 32.9765V32.9765C29.0984 35.1762 26.8411 36.5147 24.8895 35.5869V35.5869C23.5263 34.9389 21.9069 35.3845 21.0418 36.6458V36.6458C19.8033 38.4514 17.1967 38.4514 15.9582 36.6458V36.6458C15.0931 35.3845 13.4737 34.9389 12.1105 35.5869V35.5869C10.1589 36.5147 7.90157 35.1762 7.70806 32.9765V32.9765C7.57289 31.44 6.38741 30.2224 4.89133 30.0836V30.0836C2.74953 29.8849 1.44625 27.5665 2.34957 25.5622V25.5622C2.98055 24.1621 2.54663 22.4989 1.31857 21.6105V21.6105C-0.439525 20.3385 -0.439525 17.6615 1.31857 16.3895V16.3895C2.54663 15.5011 2.98055 13.8379 2.34957 12.4378V12.4378C1.44625 10.4335 2.74953 8.11513 4.89133 7.91638V7.91638C6.38741 7.77756 7.57289 6.56004 7.70806 5.02353V5.02353C7.90157 2.82384 10.1589 1.48534 12.1105 2.41307V2.41307C13.4737 3.0611 15.0931 2.61546 15.9582 1.35421V1.35421Z" fill="black"/>
</svg>

<svg width="37" height="38" fill="none" xmlns="http://www.w3.org/2000/svg"><path d="M15.958 1.354a3.063 3.063 0 0 1 5.084 0c.865 1.261 2.484 1.707 3.848 1.06 1.951-.929 4.208.41 4.402 2.61.135 1.536 1.32 2.754 2.817 2.892 2.142.2 3.445 2.518 2.541 4.522-.63 1.4-.197 3.063 1.031 3.952 1.759 1.271 1.759 3.948 0 5.22-1.228.889-1.661 2.552-1.03 3.952.903 2.005-.4 4.323-2.542 4.522-1.496.138-2.682 1.356-2.817 2.893-.194 2.2-2.45 3.538-4.402 2.61-1.364-.648-2.983-.203-3.848 1.059a3.063 3.063 0 0 1-5.084 0c-.865-1.261-2.484-1.707-3.848-1.06-1.951.929-4.208-.41-4.402-2.61-.135-1.536-1.32-2.754-2.817-2.892-2.141-.2-3.445-2.517-2.541-4.522.63-1.4.197-3.063-1.031-3.952-1.759-1.271-1.759-3.948 0-5.22 1.228-.889 1.662-2.552 1.03-3.952-.903-2.005.4-4.323 2.542-4.522 1.496-.138 2.682-1.356 2.817-2.892.194-2.2 2.45-3.539 4.402-2.61 1.364.647 2.983.201 3.848-1.06z" fill="#000"/></svg>
